X: 20215
T: Joe Bane's Schottische
R: barndance
M: 4/4
K: Dmajor
AGFG A2 A2|defd A2 A2|f2 f2 efed|1 cABc d2 d2:|2 cABc defg||
a2 ag f2 fe|defd A2 A2|f2 f2 efed|1 cABc defg:|2 cABc d2 d2||

